flaticon/office/notes.svg

<svg xmlns="http://www.w3.org/2000/svg" width="32" height="32" viewBox="0 0 24 24">
    <path d="M 22.46875 3.558594 C 22.429688 3.355469 22.222656 3.1875 22.015625 3.1875 L 19.429688 3.421875 C 19.441406 3.320312 19.449219 3.214844 19.449219 3.105469 C 19.449219 1.738281 18.332031 0.625 16.96875 0.625 C 15.601562 0.625 14.484375 1.738281 14.484375 3.105469 C 14.484375 3.351562 14.523438 3.59375 14.589844 3.820312 L 8.695312 4.332031 L 1.992188 3.726562 C 1.910156 3.683594 1.785156 3.726562 1.703125 3.808594 C 1.578125 3.890625 1.535156 3.972656 1.535156 4.097656 L 0.00390625 21.433594 C -0.0351562 21.679688 0.171875 21.886719 0.378906 21.886719 L 5.871094 22.351562 L 5.878906 22.464844 C 5.921875 22.589844 5.960938 22.671875 6.046875 22.757812 C 6.085938 22.796875 6.210938 22.839844 6.292969 22.839844 L 8.941406 22.605469 L 17.710938 23.375 C 17.960938 23.375 18.125 23.210938 18.125 23.003906 L 18.222656 21.785156 L 23.628906 21.308594 C 23.75 21.265625 23.835938 21.226562 23.917969 21.144531 C 23.957031 21.058594 24 20.976562 24 20.851562 Z M 16.96875 1.449219 C 17.878906 1.449219 18.621094 2.195312 18.621094 3.105469 C 18.621094 3.296875 18.589844 3.476562 18.53125 3.648438 C 18.515625 3.671875 18.503906 3.699219 18.496094 3.726562 C 18.265625 4.304688 17.710938 4.703125 17.097656 4.753906 C 17.09375 4.753906 17.085938 4.753906 17.082031 4.753906 C 17.042969 4.757812 17.003906 4.761719 16.96875 4.761719 C 16.933594 4.761719 16.902344 4.757812 16.871094 4.757812 C 16.855469 4.757812 16.839844 4.753906 16.824219 4.753906 C 16.8125 4.753906 16.796875 4.75 16.785156 4.75 C 16.4375 4.710938 16.121094 4.5625 15.871094 4.339844 C 15.851562 4.3125 15.832031 4.289062 15.808594 4.261719 C 15.785156 4.238281 15.757812 4.21875 15.730469 4.203125 C 15.667969 4.128906 15.609375 4.054688 15.558594 3.972656 C 15.550781 3.953125 15.539062 3.933594 15.527344 3.917969 C 15.390625 3.675781 15.3125 3.398438 15.3125 3.105469 C 15.3125 2.195312 16.058594 1.449219 16.96875 1.449219 Z M 0.875 21.058594 L 2.320312 4.59375 L 4.472656 4.800781 L 4.433594 4.84375 C 4.390625 4.925781 4.347656 5.007812 4.347656 5.132812 L 5.792969 21.472656 Z M 17.339844 22.507812 L 13.683594 22.1875 L 17.378906 21.859375 Z M 6.664062 21.929688 L 5.222656 5.503906 L 8.859375 5.175781 C 8.917969 5.175781 8.976562 5.15625 9.023438 5.125 L 14.886719 4.605469 L 12.953125 6.539062 C 12.789062 6.703125 12.789062 6.953125 12.953125 7.117188 C 13.035156 7.199219 13.121094 7.242188 13.242188 7.242188 C 13.367188 7.242188 13.449219 7.199219 13.535156 7.117188 L 15.527344 5.125 C 15.933594 5.414062 16.429688 5.585938 16.96875 5.585938 C 17.933594 5.585938 18.773438 5.03125 19.183594 4.21875 L 21.683594 4.015625 L 23.132812 20.480469 Z M 6.664062 21.929688"/>
    <path d="M18.289062 10.179688L19.574219 10.054688C19.78125 10.015625 19.945312 9.808594 19.945312 9.601562 19.90625 9.394531 19.699219 9.226562 19.492188 9.226562L18.25 9.351562C18.042969 9.394531 17.878906 9.601562 17.878906 9.808594 17.878906 10.015625 18.085938 10.179688 18.289062 10.179688zM13.738281 10.59375L16.675781 10.34375C16.882812 10.304688 17.050781 10.097656 17.050781 9.890625 17.007812 9.683594 16.800781 9.476562 16.59375 9.519531L13.699219 9.765625C13.492188 9.808594 13.328125 10.015625 13.328125 10.222656 13.367188 10.429688 13.535156 10.59375 13.738281 10.59375zM12.167969 10.71875C12.375 10.675781 12.539062 10.46875 12.539062 10.261719 12.5 10.054688 12.332031 9.847656 12.085938 9.890625L8.363281 10.222656C8.15625 10.261719 7.988281 10.46875 7.988281 10.675781 8.03125 10.882812 8.195312 11.046875 8.402344 11.046875zM19.699219 11.710938L16.800781 11.957031C16.59375 12 16.429688 12.207031 16.429688 12.414062 16.46875 12.621094 16.636719 12.785156 16.84375 12.785156L19.78125 12.539062C19.988281 12.496094 20.152344 12.332031 20.152344 12.082031 20.109375 11.875 19.90625 11.667969 19.699219 11.710938zM11.09375 12.910156C11.132812 13.117188 11.300781 13.28125 11.507812 13.28125L14.445312 13.035156C14.648438 12.992188 14.855469 12.785156 14.816406 12.578125 14.773438 12.371094 14.566406 12.207031 14.359375 12.207031L11.464844 12.457031C11.257812 12.496094 11.09375 12.703125 11.09375 12.910156zM9.894531 13.40625C10.101562 13.363281 10.265625 13.160156 10.265625 12.953125 10.222656 12.746094 10.058594 12.539062 9.808594 12.578125L8.570312 12.703125C8.363281 12.746094 8.195312 12.953125 8.195312 13.160156 8.238281 13.363281 8.402344 13.53125 8.609375 13.53125zM19.90625 14.191406L19.078125 14.273438C18.871094 14.316406 18.703125 14.523438 18.703125 14.730469 18.703125 14.9375 18.910156 15.101562 19.117188 15.101562L19.988281 15.019531C20.195312 14.980469 20.359375 14.773438 20.359375 14.566406 20.316406 14.359375 20.109375 14.152344 19.90625 14.191406zM17.464844 14.398438L13.328125 14.773438C13.121094 14.8125 12.953125 15.019531 12.953125 15.226562 12.996094 15.433594 13.160156 15.597656 13.367188 15.597656L17.546875 15.226562C17.753906 15.183594 17.960938 14.980469 17.917969 14.773438 17.878906 14.566406 17.671875 14.359375 17.464844 14.398438zM10.84375 15.019531L8.777344 15.183594C8.570312 15.226562 8.402344 15.433594 8.402344 15.640625 8.445312 15.847656 8.609375 16.011719 8.816406 16.011719L10.925781 15.847656C11.132812 15.804688 11.300781 15.597656 11.300781 15.390625 11.257812 15.183594 11.09375 14.980469 10.84375 15.019531zM20.152344 16.675781L16.015625 17.046875C15.808594 17.089844 15.644531 17.296875 15.644531 17.503906 15.683594 17.710938 15.851562 17.875 16.058594 17.875L20.234375 17.503906C20.441406 17.460938 20.609375 17.253906 20.609375 17.046875 20.566406 16.839844 20.359375 16.675781 20.152344 16.675781zM13.535156 17.253906L11.878906 17.378906C11.671875 17.417969 11.507812 17.625 11.507812 17.832031 11.546875 18.039062 11.714844 18.207031 11.921875 18.207031L13.617188 18.082031C13.824219 18.039062 14.03125 17.832031 13.988281 17.625 13.945312 17.417969 13.738281 17.210938 13.535156 17.253906zM10.222656 17.503906L8.984375 17.625C8.777344 17.667969 8.609375 17.875 8.609375 18.082031 8.652344 18.289062 8.816406 18.453125 9.023438 18.453125L10.304688 18.328125C10.511719 18.289062 10.679688 18.082031 10.679688 17.875 10.636719 17.667969 10.472656 17.460938 10.222656 17.503906zM10.222656 17.503906"/>
</svg>

<svg xmlns="http://www.w3.org/2000/svg" width="32" height="32" viewBox="0 0 24 24">
    <path d="M22.469 3.559a.483.483 0 0 0-.453-.372l-2.586.235A2.486 2.486 0 0 0 16.97.625a2.487 2.487 0 0 0-2.486 2.48c0 .247.04.489.106.715l-5.895.512-6.703-.605c-.082-.043-.207 0-.289.082-.125.082-.168.164-.168.289L.004 21.434a.397.397 0 0 0 .375.453l5.492.465.008.113a.68.68 0 0 0 .168.293.45.45 0 0 0 .246.082l2.648-.235 8.77.77c.25 0 .414-.164.414-.371l.098-1.219 5.406-.476a.7.7 0 0 0 .289-.164c.039-.086.082-.168.082-.293zm-5.5-2.11a1.659 1.659 0 0 1 1.562 2.2.282.282 0 0 0-.035.078c-.23.578-.785.976-1.398 1.027h-.016c-.039.004-.078.008-.113.008s-.067-.004-.098-.004c-.016 0-.031-.004-.047-.004-.012 0-.027-.004-.039-.004a1.651 1.651 0 0 1-.914-.41c-.02-.027-.039-.05-.062-.078a.371.371 0 0 0-.079-.059 1.962 1.962 0 0 1-.171-.23 1.649 1.649 0 0 1-.246-.867c0-.91.746-1.657 1.656-1.657zM.875 21.06L2.32 4.594l2.153.207-.04.043a.575.575 0 0 0-.085.289l1.445 16.34zm16.465 1.449l-3.656-.32 3.695-.329zM6.664 21.93L5.223 5.504l3.636-.328c.059 0 .118-.02.164-.051l5.864-.52-1.934 1.934a.401.401 0 0 0 0 .578.381.381 0 0 0 .29.125.39.39 0 0 0 .292-.125l1.992-1.992a2.482 2.482 0 0 0 3.656-.906l2.5-.203 1.45 16.464zm0 0"/>
    <path d="M18.29 10.18l1.284-.125a.479.479 0 0 0 .371-.453.483.483 0 0 0-.453-.375l-1.242.125a.487.487 0 0 0-.371.457c0 .207.207.37.41.37zm0 0M13.738 10.594l2.938-.25a.483.483 0 0 0 .375-.453c-.043-.207-.25-.414-.457-.371l-2.895.246a.487.487 0 0 0-.37.457c.038.207.206.37.41.37zm0 0M12.168 10.719a.487.487 0 0 0 .371-.457c-.039-.207-.207-.414-.453-.371l-3.723.332a.483.483 0 0 0-.375.453c.043.207.207.37.414.37zm0 0M19.7 11.71l-2.9.247a.487.487 0 0 0-.37.457c.039.207.207.371.414.371l2.937-.246a.45.45 0 0 0 .371-.457c-.043-.207-.246-.414-.453-.371zm0 0M11.094 12.91c.039.207.207.371.414.371l2.937-.246c.203-.043.41-.25.371-.457a.487.487 0 0 0-.457-.371l-2.894.25a.479.479 0 0 0-.371.453zm0 0M9.895 13.406a.482.482 0 0 0 .37-.453c-.042-.207-.206-.414-.456-.375l-1.239.125a.49.49 0 0 0-.375.457c.043.203.207.371.414.371zm0 0M19.906 14.191l-.828.082a.49.49 0 0 0-.375.457c0 .207.207.372.414.372l.871-.082a.479.479 0 0 0 .371-.454c-.043-.207-.25-.414-.453-.375zm0 0M17.465 14.398l-4.137.375a.483.483 0 0 0-.375.454c.043.207.207.37.414.37l4.18-.37c.207-.043.414-.247.371-.454-.04-.207-.246-.414-.453-.375zm0 0M10.844 15.02l-2.067.164a.49.49 0 0 0-.375.457c.043.207.207.37.414.37l2.11-.163a.49.49 0 0 0 .375-.457c-.043-.207-.207-.41-.457-.371zm0 0M20.152 16.676l-4.136.37a.487.487 0 0 0-.371.458c.039.207.207.371.414.371l4.175-.371a.49.49 0 0 0 .375-.457.487.487 0 0 0-.457-.371zm0 0M13.535 17.254l-1.656.125a.479.479 0 0 0-.371.453c.039.207.207.375.414.375l1.695-.125c.207-.043.414-.25.371-.457-.043-.207-.25-.414-.453-.371zm0 0M10.223 17.504l-1.239.121a.49.49 0 0 0-.375.457c.043.207.207.371.414.371l1.282-.125a.483.483 0 0 0 .375-.453c-.043-.207-.207-.414-.457-.371zm0 0"/>
</svg>
